!!!Genre:	Freylekhs
!!!Mode:	Minor
!!!Listening/dance:	dance
!!!:	*B-:
!!!One_Mode:	no
**kern
*I"P1
*clefG2
*k[b-e-]
*g:
*M2/4
*>A
8d
=1||
4g
8ccL
16b-L
16aJJ
=2
4.b-
8a
=3
4g
16ddLL
16cc
16b-
16ccJJ
=4
4.b-
8a
=5
8.gL
16dJk
16gLL
16a
16b-
16ccJJ
=6
16ddLL
16dd
16dd
16b-JJ
16ccLL
16cc
16cc
16gJJ
=7
16b-LL
16b-
16b-
16fJJ
16b-LL
16a-X
16g
16fJJ
=8
4.g
=:|!
4.g
=9||
*>B
*>bM
*B-:
8f
=10!|:
4b-
8ffL
8ee-J
=11
4.dd
8cc
=12
16b-LL
16b-
16b-
16b-JJ
8ffL
8ee-J
=13
4.dd
8cc
=14
8.b-L
16fJk
16b-LL
16cc
16dd
16ee-JJ
=15
16ffLL
16ff
16ff
16ddJJ
16ee-LL
16ee-
16ee-
16ccJJ
=16
16ddLL
16dd
16dd
16b-JJ
16ccLL
16cc
16cc
16aJJ
=17
4b-
16ddLL
16cc
16b-
16aJJ
=:|!
*>eM
*-
